X:1
T:Kookabura
M:4/4
L:1/8
K:C
 GG GG A2 AA| G2 E2 G2- E2| EE EE F2 FF| E2 C2 E2- C2| c4 AB cA| G4 GA GF|\
 E2 C2 C2 D2| C8|
